src/pos-icons/hydraulic-oil-temperature.svg

<svg height="24" viewBox="0 0 24 24" width="24" xmlns="http://www.w3.org/2000/svg"><path d="m9 18c-1.66 0-3-1.34-3-3 0-2 3-5.37 3-5.37s3 3.37 3 5.37c0 1.66-1.34 3-3 3m5-14v16h-10v-16h-2v16c0 1.11.89 2 2 2h10c1.11 0 2-.89 2-2v-16zm-4 2v-4h-2v4h-3v2h8v-2zm11 11.5v-12c0-.83-.67-1.5-1.5-1.5s-1.5.67-1.5 1.5v12c-.63.47-1 1.21-1 2 0 1.38 1.12 2.5 2.5 2.5s2.5-1.12 2.5-2.5c0-.79-.37-1.5-1-2m-1-4.5h-1v-7h1z"/></svg>

<?xml version="1.0" encoding="UTF-8"?><!DOCTYPE svg PUBLIC "-//W3C//DTD SVG 1.1//EN" "http://www.w3.org/Graphics/SVG/1.1/DTD/svg11.dtd"><svg xmlns="http://www.w3.org/2000/svg" xmlns:xlink="http://www.w3.org/1999/xlink" version="1.1" id="mdi-hydraulic-oil-temperature" width="24" height="24" viewBox="0 0 24 24"><path d="M9 18C7.34 18 6 16.66 6 15C6 13 9 9.63 9 9.63S12 13 12 15C12 16.66 10.66 18 9 18M14 4V20H4V4H2V20C2 21.11 2.89 22 4 22H14C15.11 22 16 21.11 16 20V4H14M10 6V2H8V6H5V8H13V6H10M21 17.5V5.5C21 4.67 20.33 4 19.5 4S18 4.67 18 5.5V17.5C17.37 17.97 17 18.71 17 19.5C17 20.88 18.12 22 19.5 22S22 20.88 22 19.5C22 18.71 21.63 18 21 17.5M20 13H19V6H20V13Z" /></svg>
